X:175
T: Farewell
S: "The Piper's Dream"
C: Pat McNulty
Z: B.Black
L: 1/8
M: 2/4
R: hornpipe
K: Gm
GA | BdcB AcBA | GG,B,D GABc | dg^fg edcB |\
(3ABc (3BAG ^F2GA |
BdcB AcBA | GDGA BABc | dg^f=f ecAc | dD^FA G2 :|
^F2 |: FAce ^fgec | BDFB dfba | gBeg fFBd |\
cf=eg f^fga |
bBdf _aBdf | gBeg =ebge |1 fgag f=e_ed |\
cFAc B2G2 :|
|2 f=e_ec AFEC | (3B,B,B, DF B2 ||
